icons/altair.svg

<?xml version="1.0" encoding="UTF-8"?>
<svg width="256px" height="288px" viewBox="0 0 256 288" version="1.1" xmlns="http://www.w3.org/2000/svg" xmlns:xlink="http://www.w3.org/1999/xlink" preserveAspectRatio="xMidYMid">
		<g>
				<path d="M128.0418,254.7929 L31.8498,199.2549 L31.8498,88.3239 L127.9618,32.8319 L224.1508,88.3679 L224.1508,199.3029 L128.0418,254.7929 Z M236.3438,81.3289 L127.9618,18.7519 L19.6558,81.2839 L19.6558,206.2939 L128.0418,268.8719 L236.3438,206.3429 L236.3438,81.3289 Z" fill="#33363B"></path>
				<path d="M47.8621,97.5463 C40.8111,109.8133 25.0911,114.0003 12.8251,106.9483 C0.5581,99.8973 -3.6289,84.1783 3.4231,71.9113 C10.4741,59.6443 26.1941,55.4583 38.4601,62.5093 C50.7271,69.6343 54.9141,85.2793 47.8621,97.5463" fill="#7EBC59"></path>
				<path d="M208.138,97.5463 C201.086,85.2793 205.273,69.6343 217.539,62.5093 C229.807,55.4583 245.452,59.6443 252.577,71.9113 C259.628,84.1783 255.442,99.8233 243.175,106.9483 C230.909,114.0003 215.189,109.8133 208.138,97.5463" fill="#7EBC59"></path>
				<path d="M127.9998,287.6445 C113.8238,287.6445 102.3648,276.1855 102.3648,262.0085 C102.3648,247.8315 113.8238,236.3735 127.9998,236.3735 C142.1768,236.3735 153.6348,247.8315 153.6348,262.0085 C153.6348,276.1125 142.1768,287.6445 127.9998,287.6445" fill="#7EBC59"></path>
				<path d="M120.8626,50.2597 C123.1286,50.9137 125.5216,51.2707 127.9996,51.2707 C130.4866,51.2707 132.8866,50.9117 135.1586,50.2537 L212.5806,184.3477 C210.8476,185.9987 209.3176,187.9177 208.0636,190.0977 C206.8186,192.2647 205.9306,194.5397 205.3696,196.8557 L50.6326,196.8557 C50.0706,194.5417 49.1826,192.2667 47.9356,190.0977 C46.6776,187.9327 45.1506,186.0247 43.4266,184.3797 L120.8626,50.2597 Z M243.1016,180.6967 C236.8166,177.0827 229.6286,176.4267 223.1616,178.2887 L145.7216,44.1627 C150.5976,39.4977 153.6346,32.9287 153.6346,25.6357 C153.6346,11.4587 142.1766,0.0007 127.9996,0.0007 C113.8236,0.0007 102.3646,11.4587 102.3646,25.6357 C102.3646,32.9377 105.4096,39.5127 110.2946,44.1777 L32.8556,178.3027 C26.3856,176.4237 19.1976,177.0747 12.8986,180.6967 C0.6316,187.8217 -3.5544,203.4667 3.4966,215.7337 C10.5486,227.9997 26.1936,232.1867 38.5336,225.1347 C44.8256,221.4807 48.9856,215.5817 50.5996,209.0487 L205.3936,209.0487 C207.0036,215.6027 211.1656,221.5127 217.4666,225.1347 C229.7326,232.1867 245.4526,227.9997 252.5036,215.7337 C259.6286,203.4667 255.4416,187.8217 243.1016,180.6967 L243.1016,180.6967 Z" fill="#368CBF"></path>
		</g>
</svg>

<svg xmlns="http://www.w3.org/2000/svg" viewBox="0 0 256 287.644">
  <path fill="#33363b" d="M128.042 254.792 31.85 199.254V88.324l96.112-55.493 96.189 55.536v110.935zM236.344 81.328 127.962 18.751 19.656 81.283v125.01l108.386 62.578 108.302-62.529z"/>
  <path fill="#7ebc59" d="M47.862 97.546c-7.05 12.267-22.77 16.454-35.037 9.402C.558 99.897-3.629 84.178 3.423 71.91c7.051-12.267 22.771-16.453 35.037-9.402 12.267 7.125 16.454 22.77 9.402 35.037M208.138 97.546c-7.052-12.267-2.865-27.912 9.401-35.037 12.268-7.051 27.913-2.865 35.038 9.402 7.051 12.267 2.865 27.912-9.402 35.037-12.266 7.052-27.986 2.865-35.037-9.402M128 287.644c-14.176 0-25.635-11.46-25.635-25.636 0-14.177 11.459-25.635 25.635-25.635 14.177 0 25.635 11.458 25.635 25.635 0 14.104-11.458 25.636-25.635 25.636"/>
  <path fill="#368cbf" d="M120.863 50.259a25.696 25.696 0 0 0 14.296-.006l77.422 134.094a25.463 25.463 0 0 0-4.517 5.75 25.675 25.675 0 0 0-2.694 6.758H50.633a25.704 25.704 0 0 0-2.697-6.758 25.82 25.82 0 0 0-4.51-5.718zm122.239 130.437c-6.285-3.614-13.473-4.27-19.94-2.408l-77.44-134.126a25.551 25.551 0 0 0 7.913-18.527C153.635 11.458 142.177 0 128 0c-14.176 0-25.635 11.458-25.635 25.635a25.55 25.55 0 0 0 7.93 18.542l-77.44 134.125c-6.47-1.879-13.657-1.228-19.956 2.394-12.267 7.125-16.453 22.77-9.402 35.037 7.052 12.266 22.697 16.453 35.037 9.401A25.659 25.659 0 0 0 50.6 209.048h154.794c1.61 6.554 5.772 12.464 12.073 16.086 12.266 7.052 27.986 2.865 35.037-9.401 7.125-12.267 2.938-27.912-9.402-35.037z"/>
</svg>
